public/logo.svg

<svg width="135" height="68" viewBox="0 0 135 68" fill="none" xmlns="http://www.w3.org/2000/svg">
<g clip-path="url(#clip0_55_325)">
<path d="M15.1744 23.4869L0 23.3614L0.418605 23.4869C8.12093 27.9033 17.093 39.2955 20.6163 44.4396L61.8488 3.03614L64.6744 0.0250126C64.507 -0.0753591 64.1162 0.150477 63.9419 0.275942L35.0581 24.3652C28.4651 29.6348 25.1163 31.2658 22.814 31.2658C20.9721 31.2658 18 26.9162 16.7442 24.7416C16.4093 23.8382 15.5581 23.5287 15.1744 23.4869Z" fill="#58126A"/>
<path d="M62.7904 5.6709L5.96484 67.0232H24.6974L22.8137 65.2667C21.809 64.6645 21.5579 63.5938 21.5579 63.1338C21.7253 58.8178 24.4184 56.5678 25.7439 55.9823C28.5904 55.1794 32.5812 61.9208 34.2207 65.3922C34.8904 67.0985 36.1044 67.4413 36.6276 67.3996L51.2788 67.0232C40.1439 60.8002 36.1044 54.9786 35.4765 52.8457C31.9602 47.9275 40.988 34.6533 45.9416 28.631L62.7904 5.6709Z" fill="#58126A"/>
<path d="M60.3292 52.4443H58.0591L56.0075 48.9077L53.9923 52.4443H51.7344L54.8785 47.2631L51.8922 42.2565H54.1259L56.0803 45.5603L57.9984 42.2565H60.1228L57.1607 47.1757L60.3292 52.4443ZM64.6205 50.4649L65.1304 52.0659C64.7419 52.4006 64.1713 52.5607 63.5886 52.5607C62.0469 52.5607 61.1486 51.6147 61.1486 49.7518V46.5354H60.141V44.7889H61.1486V42.8823H63.0423V44.7889H64.669V46.5354H63.0423V49.7227C63.0423 50.3922 63.3458 50.756 63.8557 50.756C64.1349 50.756 64.4141 50.6541 64.6205 50.4649ZM68.0022 45.6476C68.4635 44.8908 69.2404 44.4978 70.248 44.4978V46.5936C70.0902 46.579 69.9688 46.5645 69.8231 46.5645C68.7791 46.5645 68.0872 47.2485 68.0872 48.7476V52.4443H66.1934V44.6143H68.0022V45.6476ZM77.7123 48.5584C77.7123 48.733 77.6881 48.9804 77.6759 49.1696H72.7351C72.9172 50.1447 73.6092 50.7415 74.6046 50.7415C75.2966 50.7415 75.7943 50.494 76.2435 49.9846L77.2511 51.2945C76.6441 52.1241 75.7336 52.5607 74.5561 52.5607C72.2981 52.5607 70.8292 50.8579 70.8292 48.5293C70.8292 46.1861 72.3224 44.4978 74.3133 44.4978C76.2313 44.4978 77.7123 46.0405 77.7123 48.5584ZM74.3254 46.2152C73.4635 46.2152 72.8444 46.841 72.7109 47.8452H75.9278C75.7943 46.8556 75.1752 46.2152 74.3254 46.2152ZM87.3373 44.4978C88.8912 44.4978 90.008 45.5748 90.008 47.9617V52.4443H88.1143V48.3109C88.1143 47.0448 87.6408 46.4626 86.876 46.4626C86.0263 46.4626 85.4314 47.1175 85.4314 48.5147V52.4443H83.5377V48.3109C83.5377 47.0448 83.0885 46.4626 82.2994 46.4626C81.4618 46.4626 80.867 47.1175 80.867 48.5147V52.4443H78.9732V44.6143H80.782V45.5166C81.2676 44.8471 81.9959 44.4978 82.8336 44.4978C83.744 44.4978 84.521 44.9199 84.9823 45.7786C85.5043 44.9781 86.354 44.4978 87.3373 44.4978ZM98.1503 48.5584C98.1503 48.733 98.126 48.9804 98.1139 49.1696H93.1731C93.3552 50.1447 94.0471 50.7415 95.0426 50.7415C95.7345 50.7415 96.2323 50.494 96.6814 49.9846L97.689 51.2945C97.082 52.1241 96.1716 52.5607 94.994 52.5607C92.7361 52.5607 91.2672 50.8579 91.2672 48.5293C91.2672 46.1861 92.7604 44.4978 94.7512 44.4978C96.6693 44.4978 98.1503 46.0405 98.1503 48.5584ZM94.7634 46.2152C93.9015 46.2152 93.2824 46.841 93.1488 47.8452H96.3658C96.2323 46.8556 95.6131 46.2152 94.7634 46.2152ZM104.743 52.4443V44.1776H102.024V42.2565H109.429V44.1776H106.71V52.4443H104.743ZM112.797 52.5607C110.721 52.5607 109.204 50.887 109.204 48.5293C109.204 46.1715 110.721 44.4978 112.797 44.4978C114.873 44.4978 116.378 46.1715 116.378 48.5293C116.378 50.887 114.873 52.5607 112.797 52.5607ZM112.797 50.6978C113.744 50.6978 114.46 49.8828 114.46 48.5293C114.46 47.1757 113.744 46.3607 112.797 46.3607C111.85 46.3607 111.122 47.1757 111.122 48.5293C111.122 49.8828 111.85 50.6978 112.797 50.6978ZM120.752 52.5607C118.676 52.5607 117.159 50.887 117.159 48.5293C117.159 46.1715 118.676 44.4978 120.752 44.4978C122.828 44.4978 124.333 46.1715 124.333 48.5293C124.333 50.887 122.828 52.5607 120.752 52.5607ZM120.752 50.6978C121.699 50.6978 122.415 49.8828 122.415 48.5293C122.415 47.1757 121.699 46.3607 120.752 46.3607C119.805 46.3607 119.077 47.1757 119.077 48.5293C119.077 49.8828 119.805 50.6978 120.752 50.6978ZM125.599 52.4443V41.6453H127.493V52.4443H125.599ZM131.448 52.5607C130.343 52.5607 129.226 52.1968 128.619 51.7166L129.25 50.0865C129.833 50.5377 130.719 50.8433 131.52 50.8433C132.394 50.8433 132.722 50.5668 132.722 50.1302C132.722 48.8494 128.777 50.1593 128.777 47.0302C128.777 45.5457 129.894 44.4978 131.8 44.4978C132.698 44.4978 133.693 44.7452 134.313 45.1819L133.681 46.7973C133.038 46.3607 132.394 46.2152 131.8 46.2152C130.95 46.2152 130.586 46.5354 130.586 46.9429C130.586 48.2818 134.531 46.9865 134.531 50.072C134.531 51.5274 133.402 52.5607 131.448 52.5607Z" fill="#58126A"/>
</g>
<defs>
<clipPath id="clip0_55_325">
<rect width="135" height="67.5" fill="white"/>
</clipPath>
</defs>
</svg>

<svg xmlns="http://www.w3.org/2000/svg" width="135" height="68" fill="none" viewBox="0 0 135 68"><g fill="#58126A" clip-path="url(#a)"><path d="M15.174 23.487 0 23.36l.419.126C8.12 27.903 17.093 39.295 20.616 44.44L61.85 3.036 64.674.025c-.167-.1-.558.125-.732.25l-28.884 24.09c-6.593 5.27-9.942 6.9-12.244 6.9-1.842 0-4.814-4.349-6.07-6.523-.335-.904-1.186-1.213-1.57-1.255ZM62.79 5.67 5.965 67.024h18.732l-1.883-1.756c-1.005-.602-1.256-1.673-1.256-2.133.167-4.316 2.86-6.566 4.186-7.152 2.846-.803 6.837 5.939 8.477 9.41.67 1.707 1.883 2.05 2.407 2.008l14.65-.377C40.145 60.8 36.105 54.98 35.478 52.846c-3.517-4.918 5.511-18.193 10.465-24.215L62.79 5.671Z"/><path d="M60.33 52.444h-2.27l-2.053-3.536-2.015 3.536h-2.258l3.145-5.18-2.987-5.007h2.234l1.954 3.303 1.918-3.303h2.125l-2.962 4.919 3.168 5.268Zm4.29-1.98.51 1.602c-.388.335-.959.495-1.541.495-1.542 0-2.44-.946-2.44-2.81v-3.216H60.14V44.79h1.008v-1.907h1.893v1.907h1.627v1.746h-1.627v3.188c0 .67.304 1.033.814 1.033.279 0 .558-.102.765-.291Zm3.382-4.816c.462-.757 1.238-1.15 2.246-1.15v2.096c-.158-.015-.28-.03-.425-.03-1.044 0-1.736.684-1.736 2.184v3.696h-1.894v-7.83h1.81v1.034Zm9.71 2.91c0 .175-.024.422-.036.612h-4.94c.181.975.873 1.572 1.869 1.572.692 0 1.19-.248 1.638-.757l1.008 1.31c-.607.83-1.517 1.266-2.695 1.266-2.258 0-3.727-1.703-3.727-4.032 0-2.343 1.493-4.031 3.484-4.031 1.918 0 3.4 1.543 3.4 4.06Zm-3.387-2.343c-.862 0-1.48.626-1.614 1.63h3.217c-.134-.99-.753-1.63-1.603-1.63Zm13.012-1.717c1.554 0 2.671 1.077 2.671 3.464v4.482h-1.894v-4.133c0-1.266-.473-1.848-1.238-1.848-.85 0-1.445.654-1.445 2.052v3.93h-1.893V48.31c0-1.266-.45-1.848-1.239-1.848-.837 0-1.432.654-1.432 2.052v3.93h-1.894v-7.83h1.809v.902c.486-.67 1.214-1.02 2.052-1.02.91 0 1.687.423 2.148 1.282a2.767 2.767 0 0 1 2.355-1.281Zm10.813 4.06c0 .175-.024.422-.036.612h-4.94c.181.975.873 1.572 1.869 1.572.691 0 1.19-.248 1.638-.757l1.008 1.31c-.607.83-1.517 1.266-2.695 1.266-2.258 0-3.727-1.703-3.727-4.032 0-2.343 1.493-4.031 3.484-4.031 1.918 0 3.4 1.543 3.4 4.06Zm-3.387-2.343c-.862 0-1.48.626-1.614 1.63h3.217c-.134-.99-.753-1.63-1.603-1.63Zm9.98 6.23v-8.267h-2.719v-1.921h7.405v1.92h-2.719v8.267h-1.967Zm8.054.116c-2.076 0-3.593-1.674-3.593-4.032s1.517-4.031 3.593-4.031 3.581 1.674 3.581 4.031c0 2.358-1.505 4.032-3.581 4.032Zm0-1.863c.947 0 1.663-.815 1.663-2.169 0-1.353-.716-2.168-1.663-2.168-.947 0-1.675.815-1.675 2.168 0 1.354.728 2.169 1.675 2.169Zm7.955 1.863c-2.076 0-3.593-1.674-3.593-4.032s1.517-4.031 3.593-4.031 3.581 1.674 3.581 4.031c0 2.358-1.505 4.032-3.581 4.032Zm0-1.863c.947 0 1.663-.815 1.663-2.169 0-1.353-.716-2.168-1.663-2.168-.947 0-1.675.815-1.675 2.168 0 1.354.728 2.169 1.675 2.169Zm4.847 1.746V41.645h1.894v10.8h-1.894Zm5.849.117c-1.105 0-2.222-.364-2.829-.844l.631-1.63c.583.45 1.469.756 2.27.756.874 0 1.202-.276 1.202-.713 0-1.28-3.945.03-3.945-3.1 0-1.484 1.117-2.532 3.023-2.532.898 0 1.893.247 2.513.684l-.632 1.615a3.272 3.272 0 0 0-1.881-.582c-.85 0-1.214.32-1.214.728 0 1.339 3.945.044 3.945 3.129 0 1.455-1.129 2.489-3.083 2.489Z"/></g><defs><clipPath id="a"><path fill="#fff" d="M0 0h135v67.5H0z"/></clipPath></defs></svg>
